proprietary/assets/icons/op-kantoor/envelop.svg

<svg height="64" viewBox="0 0 64 64" width="64" xmlns="http://www.w3.org/2000/svg"><path d="m0 0h64v64h-64z" fill="none"/><path d="m55 15h-46c-1.1045 0-2 .8955-2 2v30c0 1.1045.8955 2 2 2h46c1.1045 0 2-.8955 2-2v-30c0-1.1045-.8955-2-2-2zm-3.9581 5-19.0419 12.6016-19.0419-12.6016zm-39.0419 4.1625 18.8965 12.5055c.334.2212.7187.332 1.1035.332s.7695-.1108 1.1035-.332l18.8965-12.5055v19.7726l-11.835-8.6109s-.2412.1533-.0244.418 6.8105 8.2578 6.8105 8.2578h-29.7822s6.5841-7.9775 6.7999-8.2422-.0127-.4336-.0127-.4336l-11.9243 8.6758h-.0318z"/></svg>

<?xml version="1.0" encoding="utf-8"?>
<!-- Generator: Adobe Illustrator 17.1.0, SVG Export Plug-In . SVG Version: 6.00 Build 0)  -->
<svg version="1.2" baseProfile="tiny" xmlns="http://www.w3.org/2000/svg" xmlns:xlink="http://www.w3.org/1999/xlink" x="0px"
	 y="0px" width="64px" height="64px" viewBox="0 0 64 64" xml:space="preserve">
<g id="_x36_4px_Boxes">
	<rect fill="none" width="64" height="64"/>
</g>
<g id="Production">
	<path d="M55,15H9c-1.1045,0-2,0.8955-2,2v30c0,1.1045,0.8955,2,2,2h46c1.1045,0,2-0.8955,2-2V17C57,15.8955,56.1045,15,55,15z
		 M51.0419,20L32,32.6016L12.9581,20H51.0419z M12,24.1625L30.8965,36.668C31.2305,36.8892,31.6152,37,32,37
		c0.3848,0,0.7695-0.1108,1.1035-0.332L52,24.1625v19.7726l-11.835-8.6109c0,0-0.2412,0.1533-0.0244,0.418S46.9511,44,46.9511,44
		H17.1689c0,0,6.5841-7.9775,6.7999-8.2422s-0.0127-0.4336-0.0127-0.4336L12.0318,44H12V24.1625z"/>
</g>
</svg>
